public/svg/feature_icon_4.svg

<svg width="30" height="32" viewBox="0 0 30 32" fill="none" xmlns="http://www.w3.org/2000/svg">
<path d="M8.99866 16.9995C9.20799 16.9995 8.49866 16.9222 8.49866 17.4995C8.49866 17.5984 8.52798 17.6951 8.58292 17.7773C8.63786 17.8596 8.71595 17.9236 8.80732 17.9615C8.89868 17.9993 8.99921 18.0092 9.0962 17.9899C9.19319 17.9706 9.28228 17.923 9.35221 17.8531C9.42214 17.7832 9.46976 17.6941 9.48905 17.5971C9.50834 17.5001 9.49844 17.3996 9.4606 17.3082C9.42275 17.2168 9.35867 17.1388 9.27644 17.0838C9.19422 17.0289 9.09755 16.9995 8.99866 16.9995" stroke="#111B29" stroke-width="2" stroke-linecap="round" stroke-linejoin="round"/>
<path d="M8.99866 22.9995C9.20799 22.9995 8.49866 22.9222 8.49866 23.4995C8.49866 23.5984 8.52798 23.6951 8.58292 23.7773C8.63786 23.8596 8.71595 23.9236 8.80732 23.9615C8.89868 23.9993 8.99921 24.0092 9.0962 23.9899C9.19319 23.9706 9.28228 23.923 9.35221 23.8531C9.42214 23.7832 9.46976 23.6941 9.48905 23.5971C9.50834 23.5001 9.49844 23.3996 9.4606 23.3082C9.42275 23.2168 9.35867 23.1388 9.27644 23.0838C9.19422 23.0289 9.09755 22.9995 8.99866 22.9995" stroke="#111B29" stroke-width="2" stroke-linecap="round" stroke-linejoin="round"/>
<path d="M17 3.83031C14.7359 1.99905 11.912 1 9 1C6.08799 1 3.26413 1.99905 1 3.83031" stroke="#111B29" stroke-width="2" stroke-linecap="round" stroke-linejoin="round"/>
<path d="M4.33203 7.30087C5.65292 6.23296 7.30012 5.65039 8.9987 5.65039C10.6973 5.65039 12.3445 6.23296 13.6654 7.30087" stroke="#111B29" stroke-width="2" stroke-linecap="round" stroke-linejoin="round"/>
<path d="M11.4987 30.9998H6.49866C5.43779 30.9998 4.42038 30.5783 3.67023 29.8282C2.92008 29.078 2.49866 28.0606 2.49866 26.9998V14.9998C2.49866 13.9389 2.92008 12.9215 3.67023 12.1713C4.42038 11.4212 5.43779 10.9998 6.49866 10.9998H11.4987C12.5595 10.9998 13.5769 11.4212 14.3271 12.1713C15.0772 12.9215 15.4987 13.9389 15.4987 14.9998" stroke="#111B29" stroke-width="2" stroke-linecap="round" stroke-linejoin="round"/>
<path d="M19.5 19.9996L17.268 18.3263C17.0405 18.1556 16.7805 18.0331 16.5041 17.9664C16.2276 17.8996 15.9404 17.89 15.6601 17.938C15.3798 17.9861 15.1122 18.0908 14.8737 18.2458C14.6353 18.4009 14.431 18.6029 14.2733 18.8396V18.8396C14.0439 19.183 13.9214 19.5867 13.9214 19.9996C13.9214 20.4126 14.0439 20.8163 14.2733 21.1596L16.4653 24.449C17.1386 25.4589 18.1024 26.2408 19.2293 26.6916L22.5 27.9996V30.9996" stroke="#111B29" stroke-width="2" stroke-linecap="round" stroke-linejoin="round"/>
<path d="M17.7614 12.6836L23.2934 15.0543C24.7098 15.6612 25.8384 16.7898 26.4454 18.2063L28.0147 21.8663C28.3349 22.6133 28.5 23.4175 28.5 24.2303V30.9996" stroke="#111B29" stroke-width="2" stroke-linecap="round" stroke-linejoin="round"/>
</svg>

<svg xmlns="http://www.w3.org/2000/svg" xmlns:xlink="http://www.w3.org/1999/xlink" width="30" height="32" fill="none" xmlns:v="https://vecta.io/nano"><g stroke="#111b29" stroke-width="2" stroke-linecap="round" stroke-linejoin="round"><use xlink:href="#B"/><use xlink:href="#B" y="6"/><path d="M17 3.83a12.72 12.72 0 0 0-16 0m3.332 3.471C5.653 6.233 7.3 5.65 8.999 5.65a7.43 7.43 0 0 1 4.667 1.65M11.499 31h-5a4 4 0 0 1-4-4V15a4 4 0 0 1 4-4h5a4 4 0 0 1 4 4m4.001 5l-2.232-1.673a2.09 2.09 0 0 0-2.394-.08c-.238.155-.443.357-.6.594h0a2.09 2.09 0 0 0 0 2.32l2.192 3.289a6 6 0 0 0 2.764 2.243L22.5 28v3m-4.739-18.316l5.532 2.371a6 6 0 0 1 3.152 3.152l1.569 3.66a6 6 0 0 1 .485 2.364V31"/></g><defs ><path id="B" d="M8.999 17c.209 0-.5-.077-.5.5a.5.5 0 0 0 .309.462.5.5 0 0 0 .545-.108.5.5 0 0 0 .108-.545.5.5 0 0 0-.462-.309"/></defs></svg>
